launcher/android/assets/skins/day/svg/letterbox.svg

<svg enable-background="new 0 0 220.00 220.00" height="220" viewBox="0 0 220 220" width="220" xmlns="http://www.w3.org/2000/svg" xmlns:xlink="http://www.w3.org/1999/xlink"><filter id="a" filterUnits="userSpaceOnUse"><feGaussianBlur stdDeviation="1.88976"/></filter><linearGradient id="b" gradientTransform="matrix(.296907171134 .954906347099 -.954906347099 .296907171134 -.084017933741 -.657188945114)" gradientUnits="objectBoundingBox" x1=".404272" x2="2.18571" y1="-.385649" y2="-.385649"><stop offset="0" stop-color="#5b5b5b"/><stop offset=".275862" stop-color="#656565" stop-opacity=".996078"/><stop offset=".383621" stop-color="#f7f7f7"/><stop offset=".396552" stop-color="#fefefe" stop-opacity=".0666667"/><stop offset="1" stop-color="#fff" stop-opacity="0"/></linearGradient><g stroke-linejoin="round"><g fill="#fff"><path d="m22.5968 84.7583c0 18.3797-.1667 53.7147.0416 71.8427.2084 18.128.7919 19.049 1.7921 20.138 1.0002 1.088 2.4171 2.344 4.0425 3.265 1.6253.921 3.459 1.507 10.6688.544 7.2099-.962 19.7958-3.474 35.3824-6.991 15.5865-3.517 34.1738-8.038 53.4698-12.602 19.295-4.563 39.299-9.169 50.343-11.848 11.044-2.68 13.128-3.433 14.462-3.936 1.333-.502 1.917-.753 2.458-1.423.542-.67 1.042-1.758 1.209-18.714s0-49.7793-.167-66.4002c-.166-16.621-.333-17.0398-2.042-18.3794-1.708-1.3397-4.959-3.6004-7.21-5.1914-2.25-1.591-3.5-2.5121-5.542-3.0561-2.043-.5443-4.876-.7118-9.211-.2932-4.334.4187-10.168 1.4235-29.089 4.8983-18.921 3.4749-50.9272 9.4199-72.1399 13.4391s-31.6315 6.1125-37.9662 8.0384c-6.3346 1.9258-8.5851 3.6842-9.6269 5.275-1.0419 1.5911-.8752 3.0146-.8752 21.3938z" stroke-width=".2"/><path d="m26.5272 88.302c0 16.446-.1576 48.063.0394 64.283.197 16.221.7486 17.045 1.6942 18.019s2.2852 2.098 3.8218 2.922 3.2702 1.349 10.0864.487c6.8162-.861 18.7149-3.109 33.4505-6.256 14.7356-3.146 32.3075-7.192 50.5505-11.276 18.242-4.083 37.154-8.204 47.595-10.601 10.441-2.398 12.411-3.072 13.671-3.521 1.261-.45 1.813-.675 2.325-1.274s.985-1.573 1.143-16.745c.157-15.172 0-44.5416-.158-59.4137-.158-14.8723-.315-15.2468-1.931-16.4456-1.615-1.1988-4.688-3.2216-6.816-4.6452-2.127-1.4236-3.309-2.2476-5.24-2.7346s-4.61-.6369-8.707-.2622c-4.098.3745-9.614 1.2736-27.501 4.3828-17.888 3.1093-48.1471 8.4289-68.2017 12.0251-20.0545 3.5963-29.9045 5.4694-35.8933 7.1925-5.9888 1.7233-8.1164 3.2968-9.1014 4.7202-.985 1.4235-.8274 2.6973-.8274 19.1427z" fill-opacity=".517647" filter="url(#a)" stroke="#7a7777" stroke-opacity=".517647" stroke-width="15"/><path d="m67.5425 159.703c8.6286-9.628 27.8558-28.883 38.7695-40.009 10.914-11.125 13.514-14.122 17.218-15.995 3.703-1.874 8.51-2.623 12.962-2.023 4.453.599 8.55 2.547 17.021 8.166s21.315 14.91 28.013 20.304c6.698 5.395 7.25 6.893 7.526 8.017s.276 1.873-.355 2.735c-.63.861-1.891 1.835-21.591 6.405-19.7 4.571-57.839 12.737-78.2875 17.008-20.4486 4.27-23.2066 4.645-25.5706 4.832-2.364.188-4.3339.188 4.2946-9.44z" fill-opacity=".517647" filter="url(#a)" stroke="#7a7777" stroke-opacity=".517647" stroke-width="15"/><path d="m30.1914 70.0959c1.2214 1.2362 5.713 1.9105 9.1014 2.8844 3.3884.9741 5.6736 2.2478 8.7074 3.7836 3.0338 1.5359 6.8162 3.334 16.7449 8.2415 9.9288 4.9075 26.004 12.9241 36.9179 18.4686 10.914 5.544 16.666 8.616 20.961 10.864 4.294 2.247 7.131 3.671 9.692 4.27 2.561.6 4.846.375 7.053.187 2.206-.187 4.334-.337 6.185-1.198 1.852-.862 3.428-2.435 4.925-4.458 1.498-2.023 2.916-4.496 8.432-14.273 5.516-9.7773 15.129-26.8596 20.173-36.7495 5.043-9.8897 5.516-12.5869 5.437-14.4225s-.709-2.8096-1.931-3.9335c-1.221-1.1238-3.034-2.3974-6.107-3.0343-3.073-.6368-7.407-.6368-29.904 3.1093-22.498 3.7462-63.1583 11.2384-85.1041 15.4341-21.9457 4.1955-25.1765 5.0947-27.8163 6.4433-2.6398 1.3487-4.6886 3.1467-3.4672 4.383z" fill-opacity=".517647" filter="url(#a)" stroke="#7a7777" stroke-opacity=".517647" stroke-width="15"/></g><path d="m65.4259 165.958c9.125-10.708 29.4584-32.125 41.0001-44.5 11.542-12.375 14.292-15.708 18.208-17.791 3.917-2.084 9-2.917 13.709-2.25 4.708.666 9.041 2.833 18 9.083 8.958 6.25 22.541 16.583 29.625 22.583 7.083 6 7.666 7.667 7.958 8.917s.292 2.083-.375 3.042c-.667.958-2 2.041-22.833 7.125-20.834 5.083-61.167 14.166-82.7921 18.916-21.625 4.75-24.5416 5.167-27.0416 5.375-2.5.209-4.5834.209 4.5416-10.5z" fill="none" stroke="#000" stroke-width="5"/><path d="m29.4684 72.4009c1.2504 1.3311 5.8488 2.0571 9.3178 3.106 3.469 1.0486 5.8085 2.4201 8.9145 4.0739 3.1059 1.6538 6.9783 3.5901 17.1432 8.8741 10.1649 5.2841 26.6224 13.9161 37.7961 19.8861 11.173 5.97 17.062 9.278 21.459 11.698s7.301 3.953 9.923 4.598c2.622.646 4.961.404 7.22.202s4.437-.363 6.333-1.291 3.509-2.622 5.042-4.8 2.985-4.84 8.632-15.368c5.648-10.5283 15.49-28.922 20.653-39.5709s5.647-13.5532 5.566-15.5298c-.08-1.9764-.726-3.0252-1.976-4.2353-1.251-1.2102-3.106-2.5816-6.252-3.2674-3.147-.6856-7.584-.6856-30.616 3.3481-23.033 4.0337-64.6604 12.101-87.1281 16.6187-22.4677 4.5179-25.7753 5.4859-28.4779 6.938-2.7026 1.4522-4.8001 3.3882-3.5496 4.7195z" fill="#fff" filter="url(#a)" stroke="url(#b)" stroke-width="12"/><path d="m22.0509 86.5417c0 18.2913-.1666 53.4583.0417 71.5003.2083 18.041.7917 18.958 1.7917 20.041 1 1.084 2.4166 2.334 4.0416 3.25 1.625.917 3.4584 1.5 10.6667.542s19.7917-3.458 35.375-6.958 34.1664-8 53.4584-12.542 39.292-9.125 50.333-11.792c11.042-2.666 13.125-3.416 14.459-3.916 1.333-.5 1.916-.75 2.458-1.417s1.042-1.75 1.208-18.625c.167-16.875 0-49.5417-.166-66.0833-.167-16.5417-.334-16.9584-2.042-18.2917s-4.958-3.5833-7.208-5.1667c-2.25-1.5833-3.5-2.5-5.542-3.0416-2.042-.5417-4.875-.7084-9.208-.2917-4.334.4167-10.167 1.4167-29.084 4.875-18.916 3.4583-50.9164 9.375-72.1247 13.375-21.2084 4-31.625 6.0833-37.9584 8-6.3333 1.9167-8.5833 3.6667-9.625 5.25-1.0416 1.5833-.875 3-.875 21.2917z" fill="none" stroke="#000" stroke-width="5"/><path d="m25.9259 66.2917c1.2917 1.375 6.0417 2.125 9.625 3.2083 3.5834 1.0833 6 2.5 9.2084 4.2083 3.2083 1.7084 7.2083 3.7084 17.7083 9.1667s27.5 14.375 39.0414 20.542c11.542 6.166 17.625 9.583 22.167 12.083s7.542 4.083 10.25 4.75 5.125.417 7.458.208c2.334-.208 4.584-.375 6.542-1.333s3.625-2.708 5.208-4.958c1.584-2.25 3.084-5 8.917-15.8753 5.833-10.875 16-29.875 21.333-40.875 5.334-11 5.834-14 5.75-16.0417-.083-2.0417-.75-3.125-2.041-4.375-1.292-1.25-3.209-2.6667-6.459-3.375s-7.833-.7083-31.625 3.4583c-23.791 4.1667-66.7914 12.5-89.9997 17.1667-23.2084 4.6667-26.625 5.6667-29.4167 7.1667s-4.9583 3.5-3.6667 4.875z" fill="none" stroke="#000" stroke-width="5"/></g></svg>

﻿<?xml version="1.0" encoding="utf-8"?>
<!DOCTYPE svg PUBLIC "-//W3C//DTD SVG 1.1//EN" "http://www.w3.org/Graphics/SVG/1.1/DTD/svg11.dtd">
<svg xmlns="http://www.w3.org/2000/svg" xmlns:xlink="http://www.w3.org/1999/xlink" version="1.1" baseProfile="full" width="220" height="220" viewBox="0 0 220.00 220.00" enable-background="new 0 0 220.00 220.00" xml:space="preserve">
	<path fill="#FFFFFF" fill-opacity="1" stroke-width="0.2" stroke-linejoin="round" d="M 22.5968,84.7583C 22.5968,103.138 22.4301,138.473 22.6384,156.601C 22.8468,174.729 23.4303,175.65 24.4305,176.739C 25.4307,177.827 26.8476,179.083 28.473,180.004C 30.0983,180.925 31.932,181.511 39.1418,180.548C 46.3517,179.586 58.9376,177.074 74.5242,173.557C 90.1107,170.04 108.698,165.519 127.994,160.955C 147.289,156.392 167.293,151.786 178.337,149.107C 189.381,146.427 191.465,145.674 192.799,145.171C 194.132,144.669 194.716,144.418 195.257,143.748C 195.799,143.078 196.299,141.99 196.466,125.034C 196.633,108.078 196.466,75.2547 196.299,58.6338C 196.133,42.0128 195.966,41.594 194.257,40.2544C 192.549,38.9147 189.298,36.654 187.047,35.063C 184.797,33.472 183.547,32.5509 181.505,32.0069C 179.462,31.4626 176.629,31.2951 172.294,31.7137C 167.96,32.1324 162.126,33.1372 143.205,36.612C 124.284,40.0869 92.2778,46.0319 71.0651,50.0511C 49.8524,54.0703 39.4336,56.1636 33.0989,58.0895C 26.7643,60.0153 24.5138,61.7737 23.472,63.3645C 22.4301,64.9556 22.5968,66.3791 22.5968,84.7583 Z "/>
	<g>
		<filter id="Filter_GaussianBlur1_" filterUnits="userSpaceOnUse">
			<feGaussianBlur stdDeviation="1.88976"/>
		</filter>
		<path fill="#FFFFFF" fill-opacity="0.517647" stroke-width="15" stroke-linejoin="round" stroke="#7A7777" stroke-opacity="0.517647" filter="url(#Filter_GaussianBlur1_)" d="M 26.5272,88.302C 26.5272,104.748 26.3696,136.365 26.5666,152.585C 26.7636,168.806 27.3152,169.63 28.2608,170.604C 29.2064,171.578 30.546,172.702 32.0826,173.526C 33.6192,174.35 35.3528,174.875 42.169,174.013C 48.9852,173.152 60.8839,170.904 75.6195,167.757C 90.3551,164.611 107.927,160.565 126.17,156.481C 144.412,152.398 163.324,148.277 173.765,145.88C 184.206,143.482 186.176,142.808 187.436,142.359C 188.697,141.909 189.249,141.684 189.761,141.085C 190.273,140.486 190.746,139.512 190.904,124.34C 191.061,109.168 190.904,79.7984 190.746,64.9263C 190.588,50.054 190.431,49.6795 188.815,48.4807C 187.2,47.2819 184.127,45.2591 181.999,43.8355C 179.872,42.4119 178.69,41.5879 176.759,41.1009C 174.828,40.6139 172.149,40.464 168.052,40.8387C 163.954,41.2132 158.438,42.1123 140.551,45.2215C 122.663,48.3308 92.4039,53.6504 72.3493,57.2466C 52.2948,60.8429 42.4448,62.716 36.456,64.4391C 30.4672,66.1624 28.3396,67.7359 27.3546,69.1593C 26.3696,70.5828 26.5272,71.8566 26.5272,88.302 Z "/>
		<filter id="Filter_GaussianBlur2_" filterUnits="userSpaceOnUse">
			<feGaussianBlur stdDeviation="1.88976"/>
		</filter>
		<path fill="#FFFFFF" fill-opacity="0.517647" stroke-width="15" stroke-linejoin="round" stroke="#7A7777" stroke-opacity="0.517647" filter="url(#Filter_GaussianBlur2_)" d="M 67.5425,159.703C 76.1711,150.075 95.3983,130.82 106.312,119.694C 117.226,108.569 119.826,105.572 123.53,103.699C 127.233,101.825 132.04,101.076 136.492,101.676C 140.945,102.275 145.042,104.223 153.513,109.842C 161.984,115.461 174.828,124.752 181.526,130.146C 188.224,135.541 188.776,137.039 189.052,138.163C 189.328,139.287 189.328,140.036 188.697,140.898C 188.067,141.759 186.806,142.733 167.106,147.303C 147.406,151.874 109.267,160.04 88.8185,164.311C 68.3699,168.581 65.6119,168.956 63.2479,169.143C 60.8839,169.331 58.914,169.331 67.5425,159.703 Z "/>
		<filter id="Filter_GaussianBlur3_" filterUnits="userSpaceOnUse">
			<feGaussianBlur stdDeviation="1.88976"/>
		</filter>
		<path fill="#FFFFFF" fill-opacity="0.517647" stroke-width="15" stroke-linejoin="round" stroke="#7A7777" stroke-opacity="0.517647" filter="url(#Filter_GaussianBlur3_)" d="M 30.1914,70.0959C 31.4128,71.3321 35.9044,72.0064 39.2928,72.9803C 42.6812,73.9544 44.9664,75.2281 48.0002,76.7639C 51.034,78.2998 54.8164,80.0979 64.7451,85.0054C 74.6739,89.9129 90.7491,97.9295 101.663,103.474C 112.577,109.018 118.329,112.09 122.624,114.338C 126.918,116.585 129.755,118.009 132.316,118.608C 134.877,119.208 137.162,118.983 139.369,118.795C 141.575,118.608 143.703,118.458 145.554,117.597C 147.406,116.735 148.982,115.162 150.479,113.139C 151.977,111.116 153.395,108.643 158.911,98.866C 164.427,89.0887 174.04,72.0064 179.084,62.1165C 184.127,52.2268 184.6,49.5296 184.521,47.694C 184.442,45.8584 183.812,44.8844 182.59,43.7605C 181.369,42.6367 179.556,41.3631 176.483,40.7262C 173.41,40.0894 169.076,40.0894 146.579,43.8355C 124.081,47.5817 83.4207,55.0739 61.4749,59.2696C 39.5292,63.4651 36.2984,64.3643 33.6586,65.7129C 31.0188,67.0616 28.97,68.8596 30.1914,70.0959 Z "/>
	</g>
	<path fill="none" stroke-width="5" stroke-linejoin="round" stroke="#000000" stroke-opacity="1" d="M 65.4259,165.958C 74.5509,155.25 94.8843,133.833 106.426,121.458C 117.968,109.083 120.718,105.75 124.634,103.667C 128.551,101.583 133.634,100.75 138.343,101.417C 143.051,102.083 147.384,104.25 156.343,110.5C 165.301,116.75 178.884,127.083 185.968,133.083C 193.051,139.083 193.634,140.75 193.926,142C 194.218,143.25 194.218,144.083 193.551,145.042C 192.884,146 191.551,147.083 170.718,152.167C 149.884,157.25 109.551,166.333 87.9259,171.083C 66.3009,175.833 63.3843,176.25 60.8843,176.458C 58.3843,176.667 56.3009,176.667 65.4259,165.958 Z "/>
	<linearGradient id="SVGID_Stroke1_" gradientUnits="objectBoundingBox" x1="0.404272" y1="-0.385649" x2="2.18571" y2="-0.385649" gradientTransform="rotate(72.728065 0.404272 -0.385649)">
		<stop offset="0" stop-color="#5B5B5B" stop-opacity="1"/>
		<stop offset="0.275862" stop-color="#656565" stop-opacity="0.996078"/>
		<stop offset="0.383621" stop-color="#F7F7F7" stop-opacity="1"/>
		<stop offset="0.396552" stop-color="#FEFEFE" stop-opacity="0.0666667"/>
		<stop offset="1" stop-color="#FFFFFF" stop-opacity="0"/>
	</linearGradient>
	<filter id="Filter_GaussianBlur4_" filterUnits="userSpaceOnUse">
		<feGaussianBlur stdDeviation="1.88976"/>
	</filter>
	<path fill="#FFFFFF" fill-opacity="1" stroke-width="12" stroke-linejoin="round" stroke="url(#SVGID_Stroke1_)" filter="url(#Filter_GaussianBlur4_)" d="M 29.4684,72.4009C 30.7188,73.732 35.3172,74.458 38.7862,75.5069C 42.2552,76.5555 44.5947,77.927 47.7007,79.5808C 50.8066,81.2346 54.679,83.1709 64.8439,88.4549C 75.0088,93.739 91.4663,102.371 102.64,108.341C 113.813,114.311 119.702,117.619 124.099,120.039C 128.496,122.459 131.4,123.992 134.022,124.637C 136.644,125.283 138.983,125.041 141.242,124.839C 143.501,124.637 145.679,124.476 147.575,123.548C 149.471,122.62 151.084,120.926 152.617,118.748C 154.15,116.57 155.602,113.908 161.249,103.38C 166.897,92.8517 176.739,74.458 181.902,63.8091C 187.065,53.1602 187.549,50.2559 187.468,48.2793C 187.388,46.3029 186.742,45.2541 185.492,44.044C 184.241,42.8338 182.386,41.4624 179.24,40.7766C 176.093,40.091 171.656,40.091 148.624,44.1247C 125.591,48.1584 83.9636,56.2257 61.4959,60.7434C 39.0282,65.2613 35.7206,66.2293 33.018,67.6814C 30.3154,69.1336 28.2179,71.0696 29.4684,72.4009 Z "/>
	<path fill="none" stroke-width="5" stroke-linejoin="round" stroke="#000000" stroke-opacity="1" d="M 22.0509,86.5417C 22.0509,104.833 21.8843,140 22.0926,158.042C 22.3009,176.083 22.8843,177 23.8843,178.083C 24.8843,179.167 26.3009,180.417 27.9259,181.333C 29.5509,182.25 31.3843,182.833 38.5926,181.875C 45.8009,180.917 58.3843,178.417 73.9676,174.917C 89.5509,171.417 108.134,166.917 127.426,162.375C 146.718,157.833 166.718,153.25 177.759,150.583C 188.801,147.917 190.884,147.167 192.218,146.667C 193.551,146.167 194.134,145.917 194.676,145.25C 195.218,144.583 195.718,143.5 195.884,126.625C 196.051,109.75 195.884,77.0833 195.718,60.5417C 195.551,44 195.384,43.5833 193.676,42.25C 191.968,40.9167 188.718,38.6667 186.468,37.0833C 184.218,35.5 182.968,34.5833 180.926,34.0417C 178.884,33.5 176.051,33.3333 171.718,33.75C 167.384,34.1667 161.551,35.1667 142.634,38.625C 123.718,42.0833 91.7176,48 70.5093,52C 49.3009,56 38.8843,58.0833 32.5509,60C 26.2176,61.9167 23.9676,63.6667 22.9259,65.25C 21.8843,66.8333 22.0509,68.25 22.0509,86.5417 Z "/>
	<path fill="none" stroke-width="5" stroke-linejoin="round" stroke="#000000" stroke-opacity="1" d="M 25.9259,66.2917C 27.2176,67.6667 31.9676,68.4167 35.5509,69.5C 39.1343,70.5833 41.5509,72 44.7593,73.7083C 47.9676,75.4167 51.9676,77.4167 62.4676,82.875C 72.9676,88.3333 89.9676,97.25 101.509,103.417C 113.051,109.583 119.134,113 123.676,115.5C 128.218,118 131.218,119.583 133.926,120.25C 136.634,120.917 139.051,120.667 141.384,120.458C 143.718,120.25 145.968,120.083 147.926,119.125C 149.884,118.167 151.551,116.417 153.134,114.167C 154.718,111.917 156.218,109.167 162.051,98.2917C 167.884,87.4167 178.051,68.4167 183.384,57.4167C 188.718,46.4167 189.218,43.4167 189.134,41.375C 189.051,39.3333 188.384,38.25 187.093,37C 185.801,35.75 183.884,34.3333 180.634,33.625C 177.384,32.9167 172.801,32.9167 149.009,37.0833C 125.218,41.25 82.2176,49.5833 59.0093,54.25C 35.8009,58.9167 32.3843,59.9167 29.5926,61.4167C 26.8009,62.9167 24.6343,64.9167 25.9259,66.2917 Z "/>
</svg>
